X:710
T: Elm Grove
S: B.Breathnach:"Ceol Rince na hEireann" IV/70 (gan ainm)
Z: B.Black
L: 1/8
M: 12/8
Q: 360
R: jig
K: G
dBG G2B dBG Bcd|e2c d2B A2G FED|
dBG G2B dBG Bcd|ege faf g3 gfe|
dBG G2B dBG Bcd|e2c d2B A2G FED|
dBG G2B dBG Bcd|ege faf g3 def ||
gbg faf ege d2B|c2A B2G A2G FED|
gbg faf ege d2f|ege faf g3 def|
gab fga efg d2B|c2A B2G A2G FED|
dBG G2B dBG Bcd|ege faf g3 gfe ||
